X:122
T:Yesterday
C:John Lennon and Paul McCartney
M:4/4
L:1/8
Q:1/8=212
K:F
|:G/F/Fz4FG|E2A=B _d/=d3/2ef|e2dd z2c2|B2d/d3/2 cB/A/zG|
B2AA z3G|F2AG z3D|F2AA z4:|A4 A4|
d2e2 f2ed|e3d c2dA|z8|A4 A4|
d2e2 f2ed|e3d c2e2|f2c2 B2[A2z2]|G/F/Fz6|
E2A=B _d/=d3/2ef|e2dd z4|z2d/d3/2 cBAG|B2AA z2G2|
F2AG z3D|F2AA z4|F2A2 G2D2|F2AA z4|
